X:1
T:Vancouver, 87.87 D
T:Vancouver, 87.87 D
T:Robert Lowry, 1876
T:Public Domain Courtesy of the Cyber Hymnal™
C:Robert Lowry, 1876
Z:Public Domain
Z:Courtesy of the Cyber Hymnal™
%%score 1 ( 2 3 )
L:1/8
Q:1/4=80
M:3/4
K:F
V:1 treble 
V:2 bass 
V:3 bass 
V:1
 [CF][DG] [FA]3 [CF][DG][FA] | [DG] [DF]4- [DF]/[DF][B,D] [A,C]3 [CF][CE][CF] | %2
 [EG]4- [EG][DF][EG] | [FA]3 [CF] [DG][FA] | [DG] [DF]4- [DF]/[DF][B,D] | [A,C]3 [CF] [EG][CE] | %6
 [CF]4- [CF][FA][FB] | [Fc]3 [FA] [GB][FA] | [FA] [EG]4- [EG]/[EG][FA] | %9
 [FB]3 [DG] [EA][EB] [FA]4- [FA][FA][EG] | [DF]3 [DG] [DF][CE] | [B,D] [DF]4- [DF]/[DF][DG] | %12
 [FA]3 [DF] [EG][CE] | [CF]6 |] %14
V:2
 [F,A,][F,B,] [F,C]3 [F,A,][F,B,][F,C] | B, B,4- B,/-[B,,B,][B,,F,] [F,,F,]3 [F,,A,][F,G,][F,A,] | %2
 [C,C]4- [C,C][C,B,][C,C] | [F,C]3 [F,A,] [F,B,][F,C] | B, B,4- B,/[B,,B,][B,,F,] | %5
 [F,,F,]3 [F,,A,] [C,C][C,G,] | [F,A,]4- [F,A,][F,C][F,B,] | [F,A,]3 [F,C] [F,D][F,C] | %8
 [C,C] [C,C]4- [C,C]/[C,C][C,C] | [G,D]3 [G,B,] [C,C][C,C] [F,C]4- [F,C][F,C][E,C] | %10
 [D,A,]3 [D,A,] [D,A,][C,A,] | [B,,F,] [B,,B,]4- [B,,B,]/[B,,B,][B,,B,] | %12
 [F,C]3 [F,A,] [C,C][C,G,] | [F,A,]6 |] %14
V:3
 x8 | B, B,4- B,/ x8 | x7 | x6 | B, B,4- B,/ x2 | x6 | x7 | x6 | x15/2 | x13 | x6 | x15/2 | x6 | %13
 x6 |] %14

